X:51
T: Die irdische Pilgerfahrt
N: D0055
O: Europa, Mitteleuropa, Lothringen, Hambach
N: Sonderzeichen in der Notation
R: geistliches Lied
M: 3/4
L: 1/8
K: G
G2 | G4G2 | d6 | _e2=f2e2 | d4
d2 | c3dc2 | _B2A2GA | _B2A2G2 | z4
g2 | d2d2g2 | d2d2c2 | _B3dBA | G4
G4 | _B2d2c2 | d3_edc | _B4A2G2- | G2z6

